X: 1847
T: The Leinster Outcry
M:C
L:1/8
B:O'Neill's 1847
Z:"Transcribed by Bob Safranek, rjs@gsp.org"
K:G
(G/A/B/c/d/e/) | (ef) (ef) (ef) (ef) | Te8 | Te8 | ((3fed) B3 B c/d/e/f/ |
(ga) (ga) (ga) (ga) | g2 g2 Tg4 | Tg8 | f2 Te6 | edBA BddB |
ed ((3fed) ed ((3fed) | e3 g ((3fed) B2 | dB ed ((3fed) ed | d3 e ((3fed) B2 |
ed ((3fed) ed ((3fed) | e3 g ((3fed) B2 | dB ed ((2fed) ed | d3 e ((3fed) B2 |
((3ABd) ed d4 | c z ((3cBA) z ((3BAG) z | ((3AGE) z ((3GED) z ((3AGE) |
z ((3BAG) z ((3BAG) ((3AGE) | G3 A ((3BAG) E2 | ((3DEG) AG G2 |]


